X:3241
T:Kerry Polka #1
O:england
M:2/4
L:1/8
Q:300
C:Trad
R:polka
K:G
G>A Bd|gf ed|eA AB|cd/2c/2 BA|
G>A Bd|gf ed|ea ef|g2 g2:|
ae ae|ae e>f|gd gd|gd d>g|
ae ae|ae e>f|g/2f/2e dB|A2 A2:|


